X:905
T:Reel 905
M:4/4
K:Gmaj
L:1/8
gf|d>B (3BBB dBcB|ABcB A2gf| (3efg dB cABG||AGAF G2:||2AcAB G2| (3def |g2gf gbag|fdad bdaf|gbbf gbag|fdef g2df|g2bg fgag|fdad bdad|gdef gdeg|fdcA G2|
